value_images/collective.svg

<svg xmlns="http://www.w3.org/2000/svg" width="200" height="200" xml:space="preserve" style="fill-rule:evenodd;clip-rule:evenodd;stroke-linejoin:round;stroke-miterlimit:2">
    <path d="M100 3.75C100 1.68 98.32 0 96.25 0H3.75C1.68 0 0 1.68 0 3.75v92.5C0 98.32 1.68 100 3.75 100h92.5c2.07 0 3.75-1.68 3.75-3.75V3.75z" style="fill:#222" transform="scale(2)"/>
    <path d="M95 7.5A2.5 2.5 0 0 0 92.5 5h-85A2.5 2.5 0 0 0 5 7.5v85A2.5 2.5 0 0 0 7.5 95h85a2.5 2.5 0 0 0 2.5-2.5v-85z" style="fill:#da0000" transform="scale(2)"/>
    <g transform="translate(26 25.366) scale(.11563)">
        <clipPath id="a">
            <path d="M0 0h1280v879H0z"/>
        </clipPath>
        <g clip-path="url(#a)">
            <path d="M5105 8720c-486-126-1679-428-2220-562l-530-132-227-160c-125-89-368-259-539-378l-312-218H-3l7-2202c5-1212 9-2204 9-2205 1-1 227-5 503-9l500-7 125-114c686-633 764-703 787-703 8 0 41 26 75 58s139 130 232 217c94 88 426 402 739 699 312 297 588 556 612 575 58 44 121 52 187 23 25-11 207-124 404-250 414-265 491-312 512-312 19 0 84 70 184 199 45 58 127 151 183 208 90 91 105 103 136 103 60 0 119-41 653-455 143-111 460-351 705-535 490-367 596-451 605-481 11-33-34-145-96-240l-59-90v-529c0-292 3-530 7-530s188 105 410 233l404 232-5 790c-3 536-8 805-16 836-8 34-27 64-68 110-31 35-307 297-612 583-305 287-620 584-699 662l-145 141-7 59c-17 139-6 307 22 325 24 15 70 10 105-12 57-35 64-53 64-161v-98l785-736 785-736v-416c0-707 12-1332 25-1332 19 0 250 136 474 280l210 135 1 1069v1068l-663 672c-837 847-971 987-998 1043-20 41-21 56-17 177 7 170 10 176 94 176 95 0 110-18 118-141 3-52 7-108 9-125 2-27 121-151 835-869l832-838 1-851c1-910 9-1429 22-1443 12-11 116 46 456 248l291 173v2523l-592 574c-326 316-875 850-1220 1187-345 336-630 612-633 612-4 0-125-91-269-203-321-249-322-249-371-274-22-12-87-30-144-41-58-12-111-28-119-36-10-10-16-45-20-108l-4-93-142-105c-77-58-325-242-551-409-518-385-566-418-633-431-30-5-262-10-540-10l-487-1-71 63c-445 397-712 642-726 666-29 49-23 86 20 128 20 20 319 240 663 490l626 454 6 378c4 207 9 389 13 403 7 31-2 26 619 359 603 323 665 359 665 381 0 33-384 340-424 339-6 0-132-32-281-70z" style="fill:#222;fill-rule:nonzero" transform="matrix(.1 0 0 -.1 0 879)"/>
            <path d="M6945 8773c-53-10-123-43-265-123-250-141-450-249-1075-580-324-172-654-348-732-393l-143-80-2-386-3-386-255-188c-140-104-419-308-620-454s-369-269-374-274c-15-14 294-289 325-289 19 0 178 103 479 311 249 172 388 259 414 259 33 0 81-35 95-69 8-18 11-45 7-66-9-44-27-58-446-344-179-122-336-231-350-241l-25-20 48-45 49-45h930l67 47c63 45 772 571 967 717l91 68 6 247c4 135 7 309 7 387 0 77 3 188 6 246l7 106 50 23 49 24 47-26 46-26 6-319c3-175 6-321 7-322 4-8 128 11 167 25 22 7 65 33 95 56 30 24 149 117 264 207 242 188 360 270 391 270 63 0 234-160 1674-1570 481-470 908-886 948-923l73-69V2020h408l407 1 431 418 430 419 577 7 577 8v4297h-517l-518-1-125 104c-69 57-170 138-225 179-55 42-171 134-257 205-156 128-158 129-250 155-113 32-832 212-1353 338-209 51-456 112-550 136-483 126-1893 471-1955 479-25 4-54 8-65 9-11 2-29 1-40-1zM3573 3272c-197-182-1345-1277-1456-1389l-99-100 124-105c222-189 651-542 736-606 72-54 86-61 101-50 46 33 283 303 613 698 135 162 402 477 592 700 215 252 346 413 346 426 0 16-51 54-227 171-241 159-496 319-562 352l-39 21-129-118zm125-304 70-68-91-91-92-90 60-57c33-31 116-99 183-150 68-52 122-98 120-102-7-19-114-160-121-160-18 0-401 281-489 360-57 50-61 79-20 136 35 47 292 296 303 292 4-2 39-33 77-70zm1439 240c-41-46-251-292-468-548-216-256-517-611-669-790s-318-377-370-440-146-178-210-255c-126-152-190-237-190-252 0-14 222-75 1069-294l204-53 51 55c68 73 619 788 755 979 41 58 156 211 256 340 361 468 505 660 505 675 0 22-76 96-141 137-30 19-192 139-359 265-168 126-317 237-331 247l-27 17-75-83zm104-288c51-26 119-88 119-108 0-8-16-34-35-58-53-65-135-186-135-200 0-7 42-38 93-69 172-105 217-139 217-160 0-26-87-175-102-175-6 0-99 53-206 118-276 165-339 230-297 308 33 62 284 364 301 364 3 0 23-9 45-20zm942-532c-42-57-188-247-323-423-233-303-796-1049-998-1323l-94-126 35-12c19-7 145-40 279-74 133-34 342-89 463-122l220-60 37 44c40 45 469 709 668 1033 64 105 167 269 227 365 160 253 187 304 172 327-39 60-563 473-600 473-4 0-43-46-86-102zm174-253 55-50-36-50c-57-80-88-134-82-144 3-5 45-36 94-69s94-67 100-74c17-21-83-188-113-188-13 0-232 141-308 199-84 63-93 108-40 200 27 46 109 147 176 218l40 42 30-17c16-9 54-39 84-67zm-5319 194c-194-167-408-363-407-373 1-17 519-488 601-547l26-19 44 36c23 20 136 125 250 233l208 196-98 94c-118 113-358 332-427 387-53 43-87 64-104 64-6 0-48-32-93-71zm663-843c-152-153-149-136-48-213 69-53 746-523 764-530 7-3 72 26 145 64 151 78 163 94 109 142-243 212-808 671-826 671-6 0-71-60-144-134zm4946-303c-219-342-397-633-397-649 0-13 231 4 371 26l137 22 7 283c7 276 1 465-15 465-5 0-51-66-103-147zM3290 654c0-39 427-404 472-404 14 0 246 179 251 195 4 9-1 19-13 25-10 5-162 48-337 94-370 98-373 98-373 90zm1440-400c-18-20-37-201-24-214 18-18 174-31 377-33l199-2 34 40c41 48 43 72 7 86-55 21-545 139-576 139-3 0-10-7-17-16z" style="fill:#222;fill-rule:nonzero" transform="matrix(.1 0 0 -.1 0 879)"/>
        </g>
    </g>
    <path d="M2.75 70v25c0 5.817 4.683 1.25 10.5 1.25h73.5c5.817 0 10.5 4.567 10.5-1.25V70H2.75z" style="fill:#222;fill-rule:nonzero" transform="scale(2)"/>
    <g aria-label="KOLLEKTIVISTISCH" style="font-weight:700;font-size:11.286px;line-height:1.25;font-family:sans-serif;-inkscape-font-specification:'sans-serif Bold';letter-spacing:0;word-spacing:0;fill:#fee;fill-opacity:1;stroke-width:.282152">
        <path d="M6.984 58.951h2.122v3.004l3.058-3.004h2.464l-3.962 3.897 4.37 4.331h-2.657l-3.273-3.24v3.24H6.984z" style="fill:#fee;fill-opacity:1;stroke-width:.282152" transform="scale(1.51586 2.63876)"/>
        <path d="M18.981 60.34q-.97 0-1.504.717-.535.716-.535 2.016 0 1.296.535 2.012.534.716 1.504.716.976 0 1.51-.716.535-.716.535-2.012 0-1.3-.535-2.016-.534-.717-1.51-.717zm0-1.537q1.984 0 3.108 1.135 1.125 1.135 1.125 3.135 0 1.995-1.125 3.13-1.124 1.136-3.108 1.136-1.978 0-3.108-1.135-1.124-1.136-1.124-3.13 0-2 1.124-3.136 1.13-1.135 3.108-1.135zm5.836.148h2.122v6.624h3.725v1.604h-5.847zm7.192 0h2.121v6.624h3.726v1.604h-5.847zm7.191 0h5.726v1.604h-3.604v1.532h3.389v1.604h-3.39v1.884h3.726v1.604H39.2zm7.71 0h2.121v3.004l3.059-3.004h2.463l-3.962 3.897 4.37 4.331h-2.656l-3.274-3.24v3.24H46.91zm7.764 0h7.583v1.604H59.53v6.624h-2.121v-6.624h-2.734zm8.68 0h2.121v8.228h-2.121zm3.218 0h2.133l2.182 6.073 2.177-6.073h2.132L72.15 67.18h-2.53zm9.715 0h2.122v8.228h-2.122zm9.925.259v1.742q-.678-.303-1.322-.458-.645-.154-1.218-.154-.76 0-1.124.21-.364.209-.364.65 0 .33.242.518.248.182.893.314l.904.182q1.372.275 1.95.837.58.563.58 1.599 0 1.36-.81 2.028-.805.66-2.464.66-.783 0-1.57-.148-.789-.149-1.577-.44v-1.792q.788.419 1.521.634.739.21 1.422.21.694 0 1.064-.232.369-.232.369-.661 0-.386-.254-.596-.248-.209-.997-.374l-.821-.182q-1.235-.265-1.808-.843-.567-.579-.567-1.56 0-1.229.793-1.89.794-.661 2.282-.661.678 0 1.394.104.716.1 1.482.303zm1.422-.259h7.583v1.604h-2.728v6.624h-2.122v-6.624h-2.733zm8.679 0h2.122v8.228h-2.122zm9.925.259v1.742q-.677-.303-1.322-.458-.645-.154-1.218-.154-.76 0-1.124.21-.364.209-.364.65 0 .33.242.518.248.182.893.314l.904.182q1.372.275 1.95.837.58.563.58 1.599 0 1.36-.81 2.028-.805.66-2.464.66-.783 0-1.57-.148-.789-.149-1.577-.44v-1.792q.788.419 1.521.634.739.21 1.422.21.694 0 1.064-.232.369-.232.369-.661 0-.386-.254-.596-.248-.209-.997-.374l-.821-.182q-1.235-.265-1.808-.843-.567-.579-.567-1.56 0-1.229.793-1.89.794-.661 2.282-.661.678 0 1.394.104.716.1 1.482.303zm8.928 7.517q-.584.303-1.218.458-.634.154-1.323.154-2.055 0-3.257-1.146-1.2-1.152-1.2-3.12 0-1.972 1.2-3.119 1.202-1.151 3.257-1.151.69 0 1.323.154.634.154 1.218.457v1.703q-.59-.402-1.163-.59-.573-.187-1.207-.187-1.135 0-1.785.728-.65.727-.65 2.005 0 1.273.65 2 .65.728 1.785.728.634 0 1.207-.187.573-.187 1.163-.59zm1.758-7.776h2.121v3.136h3.13v-3.136h2.122v8.228h-2.122v-3.488h-3.13v3.488h-2.121z" style="fill:#fee;fill-opacity:1;stroke-width:.282152" transform="scale(1.51586 2.63876)"/>
    </g>
</svg>

<?xml version="1.0" encoding="UTF-8" standalone="no"?>
<!DOCTYPE svg PUBLIC "-//W3C//DTD SVG 1.1//EN" "http://www.w3.org/Graphics/SVG/1.1/DTD/svg11.dtd">
<svg width="200" height="200" viewBox="0 0 200 200" version="1.1" xmlns="http://www.w3.org/2000/svg" xmlns:xlink="http://www.w3.org/1999/xlink" xml:space="preserve" xmlns:serif="http://www.serif.com/" style="fill-rule:evenodd;clip-rule:evenodd;stroke-linejoin:round;stroke-miterlimit:2;">
    <g id="Collective" transform="matrix(2,0,0,2,0,0)">
        <path id="rect5322" d="M100,3.75C100,1.68 98.32,0 96.25,0L3.75,0C1.68,0 0,1.68 0,3.75L0,96.25C0,98.32 1.68,100 3.75,100L96.25,100C98.32,100 100,98.32 100,96.25L100,3.75Z" style="fill:rgb(34,34,34);"/>
        <path id="rect5324" d="M95,7.5C95,6.12 93.88,5 92.5,5L7.5,5C6.12,5 5,6.12 5,7.5L5,92.5C5,93.88 6.12,95 7.5,95L92.5,95C93.88,95 95,93.88 95,92.5L95,7.5Z" style="fill:rgb(218,0,0);"/>
        <g id="_155938" serif:id="155938" transform="matrix(0.0578125,0,0,0.0578125,50,38.0914)">
            <g transform="matrix(1,0,0,1,-640,-439.5)">
                <clipPath id="_clip1">
                    <rect x="0" y="0" width="1280" height="879"/>
                </clipPath>
                <g clip-path="url(#_clip1)">
                    <g transform="matrix(0.1,0,0,-0.1,0,879)">
                        <path d="M5105,8720C4619,8594 3426,8292 2885,8158L2355,8026L2128,7866C2003,7777 1760,7607 1589,7488L1277,7270L637,7270L-3,7270L4,5068C9,3856 13,2864 13,2863C14,2862 240,2858 516,2854L1016,2847L1141,2733C1827,2100 1905,2030 1928,2030C1936,2030 1969,2056 2003,2088C2037,2120 2142,2218 2235,2305C2329,2393 2661,2707 2974,3004C3286,3301 3562,3560 3586,3579C3644,3623 3707,3631 3773,3602C3798,3591 3980,3478 4177,3352C4591,3087 4668,3040 4689,3040C4708,3040 4773,3110 4873,3239C4918,3297 5000,3390 5056,3447C5146,3538 5161,3550 5192,3550C5252,3550 5311,3509 5845,3095C5988,2984 6305,2744 6550,2560C7040,2193 7146,2109 7155,2079C7166,2046 7121,1934 7059,1839L7000,1749L7000,1220C7000,928 7003,690 7007,690C7011,690 7195,795 7417,923L7821,1155L7816,1945C7813,2481 7808,2750 7800,2781C7792,2815 7773,2845 7732,2891C7701,2926 7425,3188 7120,3474C6815,3761 6500,4058 6421,4136L6276,4277L6269,4336C6252,4475 6263,4643 6291,4661C6315,4676 6361,4671 6396,4649C6453,4614 6460,4596 6460,4488L6460,4390L7245,3654L8030,2918L8030,2502C8030,1795 8042,1170 8055,1170C8074,1170 8305,1306 8529,1450L8739,1585L8740,2654L8740,3722L8077,4394C7240,5241 7106,5381 7079,5437C7059,5478 7058,5493 7062,5614C7069,5784 7072,5790 7156,5790C7251,5790 7266,5772 7274,5649C7277,5597 7281,5541 7283,5524C7285,5497 7404,5373 8118,4655L8950,3817L8951,2966C8952,2056 8960,1537 8973,1523C8985,1512 9089,1569 9429,1771L9720,1944L9720,4467L9128,5041C8802,5357 8253,5891 7908,6228C7563,6564 7278,6840 7275,6840C7271,6840 7150,6749 7006,6637C6685,6388 6684,6388 6635,6363C6613,6351 6548,6333 6491,6322C6433,6310 6380,6294 6372,6286C6362,6276 6356,6241 6352,6178L6348,6085L6206,5980C6129,5922 5881,5738 5655,5571C5137,5186 5089,5153 5022,5140C4992,5135 4760,5130 4482,5130L3995,5129L3924,5192C3479,5589 3212,5834 3198,5858C3169,5907 3175,5944 3218,5986C3238,6006 3537,6226 3881,6476L4507,6930L4513,7308C4517,7515 4522,7697 4526,7711C4533,7742 4524,7737 5145,8070C5748,8393 5810,8429 5810,8451C5810,8484 5426,8791 5386,8790C5380,8790 5254,8758 5105,8720Z" style="fill:rgb(34,34,34);fill-rule:nonzero;"/>
                        <path d="M6945,8773C6892,8763 6822,8730 6680,8650C6430,8509 6230,8401 5605,8070C5281,7898 4951,7722 4873,7677L4730,7597L4728,7211L4725,6825L4470,6637C4330,6533 4051,6329 3850,6183C3649,6037 3481,5914 3476,5909C3461,5895 3770,5620 3801,5620C3820,5620 3979,5723 4280,5931C4529,6103 4668,6190 4694,6190C4727,6190 4775,6155 4789,6121C4797,6103 4800,6076 4796,6055C4787,6011 4769,5997 4350,5711C4171,5589 4014,5480 4000,5470L3975,5450L4023,5405L4072,5360L5002,5360L5069,5407C5132,5452 5841,5978 6036,6124L6127,6192L6133,6439C6137,6574 6140,6748 6140,6826C6140,6903 6143,7014 6146,7072L6153,7178L6203,7201L6252,7225L6299,7199L6345,7173L6351,6854C6354,6679 6357,6533 6358,6532C6362,6524 6486,6543 6525,6557C6547,6564 6590,6590 6620,6613C6650,6637 6769,6730 6884,6820C7126,7008 7244,7090 7275,7090C7338,7090 7509,6930 8949,5520C9430,5050 9857,4634 9897,4597L9970,4528L9970,3274L9970,2020L10378,2020L10785,2021L11216,2439L11646,2858L12223,2865L12800,2873L12800,7170L12283,7170L11765,7169L11640,7273C11571,7330 11470,7411 11415,7452C11360,7494 11244,7586 11158,7657C11002,7785 11000,7786 10908,7812C10795,7844 10076,8024 9555,8150C9346,8201 9099,8262 9005,8286C8522,8412 7112,8757 7050,8765C7025,8769 6996,8773 6985,8774C6974,8776 6956,8775 6945,8773Z" style="fill:rgb(34,34,34);fill-rule:nonzero;"/>
                        <path d="M3573,3272C3376,3090 2228,1995 2117,1883L2018,1783L2142,1678C2364,1489 2793,1136 2878,1072C2950,1018 2964,1011 2979,1022C3025,1055 3262,1325 3592,1720C3727,1882 3994,2197 4184,2420C4399,2672 4530,2833 4530,2846C4530,2862 4479,2900 4303,3017C4062,3176 3807,3336 3741,3369L3702,3390L3573,3272ZM3698,2968L3768,2900L3677,2809L3585,2719L3645,2662C3678,2631 3761,2563 3828,2512C3896,2460 3950,2414 3948,2410C3941,2391 3834,2250 3827,2250C3809,2250 3426,2531 3338,2610C3281,2660 3277,2689 3318,2746C3353,2793 3610,3042 3621,3038C3625,3036 3660,3005 3698,2968Z" style="fill:rgb(34,34,34);fill-rule:nonzero;"/>
                        <path d="M5137,3208C5096,3162 4886,2916 4669,2660C4453,2404 4152,2049 4000,1870C3848,1691 3682,1493 3630,1430C3578,1367 3484,1252 3420,1175C3294,1023 3230,938 3230,923C3230,909 3452,848 4299,629L4503,576L4554,631C4622,704 5173,1419 5309,1610C5350,1668 5465,1821 5565,1950C5926,2418 6070,2610 6070,2625C6070,2647 5994,2721 5929,2762C5899,2781 5737,2901 5570,3027C5402,3153 5253,3264 5239,3274L5212,3291L5137,3208ZM5241,2920C5292,2894 5360,2832 5360,2812C5360,2804 5344,2778 5325,2754C5272,2689 5190,2568 5190,2554C5190,2547 5232,2516 5283,2485C5455,2380 5500,2346 5500,2325C5500,2299 5413,2150 5398,2150C5392,2150 5299,2203 5192,2268C4916,2433 4853,2498 4895,2576C4928,2638 5179,2940 5196,2940C5199,2940 5219,2931 5241,2920Z" style="fill:rgb(34,34,34);fill-rule:nonzero;"/>
                        <path d="M6183,2388C6141,2331 5995,2141 5860,1965C5627,1662 5064,916 4862,642L4768,516L4803,504C4822,497 4948,464 5082,430C5215,396 5424,341 5545,308L5765,248L5802,292C5842,337 6271,1001 6470,1325C6534,1430 6637,1594 6697,1690C6857,1943 6884,1994 6869,2017C6830,2077 6306,2490 6269,2490C6265,2490 6226,2444 6183,2388ZM6357,2135L6412,2085L6376,2035C6319,1955 6288,1901 6294,1891C6297,1886 6339,1855 6388,1822C6437,1789 6482,1755 6488,1748C6505,1727 6405,1560 6375,1560C6362,1560 6143,1701 6067,1759C5983,1822 5974,1867 6027,1959C6054,2005 6136,2106 6203,2177L6243,2219L6273,2202C6289,2193 6327,2163 6357,2135Z" style="fill:rgb(34,34,34);fill-rule:nonzero;"/>
                        <path d="M1038,2329C844,2162 630,1966 631,1956C632,1939 1150,1468 1232,1409L1258,1390L1302,1426C1325,1446 1438,1551 1552,1659L1760,1855L1662,1949C1544,2062 1304,2281 1235,2336C1182,2379 1148,2400 1131,2400C1125,2400 1083,2368 1038,2329Z" style="fill:rgb(34,34,34);fill-rule:nonzero;"/>
                        <path d="M1701,1486C1549,1333 1552,1350 1653,1273C1722,1220 2399,750 2417,743C2424,740 2489,769 2562,807C2713,885 2725,901 2671,949C2428,1161 1863,1620 1845,1620C1839,1620 1774,1560 1701,1486Z" style="fill:rgb(34,34,34);fill-rule:nonzero;"/>
                        <path d="M6647,1183C6428,841 6250,550 6250,534C6250,521 6481,538 6621,560L6758,582L6765,865C6772,1141 6766,1330 6750,1330C6745,1330 6699,1264 6647,1183Z" style="fill:rgb(34,34,34);fill-rule:nonzero;"/>
                        <path d="M3290,654C3290,615 3717,250 3762,250C3776,250 4008,429 4013,445C4017,454 4012,464 4000,470C3990,475 3838,518 3663,564C3293,662 3290,662 3290,654Z" style="fill:rgb(34,34,34);fill-rule:nonzero;"/>
                        <path d="M4730,254C4712,234 4693,53 4706,40C4724,22 4880,9 5083,7L5282,5L5316,45C5357,93 5359,117 5323,131C5268,152 4778,270 4747,270C4744,270 4737,263 4730,254Z" style="fill:rgb(34,34,34);fill-rule:nonzero;"/>
                    </g>
                </g>
            </g>
        </g>
        <path id="path5326" d="M2.75,70L2.75,95C2.75,100.817 7.433,96.25 13.25,96.25L86.75,96.25C92.567,96.25 97.25,100.817 97.25,95L97.25,70L2.75,70Z" style="fill:rgb(34,34,34);fill-rule:nonzero;"/>
        <g transform="matrix(0.445965,0,0,0.501084,15.9577,-0.166712)">
            <g id="Text" transform="matrix(31.9308,0,0,31.9308,-25.0948,177.434)">
                <path d="M0.407,-0.138C0.484,-0.138 0.546,-0.168 0.595,-0.229L0.695,-0.126C0.616,-0.037 0.522,0.008 0.414,0.008C0.307,0.008 0.218,-0.026 0.149,-0.094C0.079,-0.162 0.044,-0.248 0.044,-0.352C0.044,-0.455 0.08,-0.542 0.151,-0.611C0.222,-0.68 0.308,-0.715 0.411,-0.715C0.526,-0.715 0.622,-0.671 0.699,-0.584L0.602,-0.474C0.553,-0.535 0.491,-0.566 0.418,-0.566C0.359,-0.566 0.309,-0.547 0.268,-0.508C0.226,-0.47 0.205,-0.419 0.205,-0.354C0.205,-0.289 0.225,-0.236 0.264,-0.197C0.303,-0.158 0.351,-0.138 0.407,-0.138Z" style="fill:rgb(255,238,238);fill-rule:nonzero;"/>
            </g>
            <g transform="matrix(31.9308,0,0,31.9308,-2.25958,177.434)">
                <path d="M0.621,-0.354C0.621,-0.416 0.601,-0.469 0.561,-0.513C0.521,-0.557 0.472,-0.579 0.413,-0.579C0.355,-0.579 0.306,-0.557 0.266,-0.513C0.226,-0.469 0.206,-0.416 0.206,-0.354C0.206,-0.291 0.226,-0.238 0.266,-0.195C0.306,-0.151 0.355,-0.129 0.413,-0.129C0.472,-0.129 0.521,-0.151 0.561,-0.195C0.601,-0.238 0.621,-0.291 0.621,-0.354ZM0.674,-0.097C0.603,-0.028 0.516,0.007 0.413,0.007C0.31,0.007 0.223,-0.028 0.152,-0.097C0.081,-0.166 0.046,-0.251 0.046,-0.354C0.046,-0.457 0.081,-0.543 0.152,-0.612C0.223,-0.681 0.31,-0.715 0.413,-0.715C0.516,-0.715 0.603,-0.681 0.674,-0.612C0.745,-0.543 0.78,-0.457 0.78,-0.354C0.78,-0.251 0.745,-0.166 0.674,-0.097Z" style="fill:rgb(255,238,238);fill-rule:nonzero;"/>
            </g>
            <g transform="matrix(31.9308,0,0,31.9308,24.1152,177.434)">
                <path d="M0.086,0L0.086,-0.699L0.242,-0.699L0.242,-0.139L0.54,-0.139L0.54,0L0.086,0Z" style="fill:rgb(255,238,238);fill-rule:nonzero;"/>
            </g>
            <g transform="matrix(31.9308,0,0,31.9308,42.2519,177.434)">
                <path d="M0.086,0L0.086,-0.699L0.242,-0.699L0.242,-0.139L0.54,-0.139L0.54,0L0.086,0Z" style="fill:rgb(255,238,238);fill-rule:nonzero;"/>
            </g>
            <g transform="matrix(31.9308,0,0,31.9308,60.3886,177.434)">
                <path d="M0.59,-0.699L0.59,-0.56L0.242,-0.56L0.242,-0.416L0.555,-0.416L0.555,-0.283L0.242,-0.283L0.242,-0.138L0.601,-0.138L0.601,0L0.086,0L0.086,-0.699L0.59,-0.699Z" style="fill:rgb(255,238,238);fill-rule:nonzero;"/>
            </g>
            <g transform="matrix(31.9308,0,0,31.9308,81.2714,177.434)">
                <path d="M0.407,-0.138C0.484,-0.138 0.546,-0.168 0.595,-0.229L0.695,-0.126C0.616,-0.037 0.522,0.008 0.414,0.008C0.307,0.008 0.218,-0.026 0.149,-0.094C0.079,-0.162 0.044,-0.248 0.044,-0.352C0.044,-0.455 0.08,-0.542 0.151,-0.611C0.222,-0.68 0.308,-0.715 0.411,-0.715C0.526,-0.715 0.622,-0.671 0.699,-0.584L0.602,-0.474C0.553,-0.535 0.491,-0.566 0.418,-0.566C0.359,-0.566 0.309,-0.547 0.268,-0.508C0.226,-0.47 0.205,-0.419 0.205,-0.354C0.205,-0.289 0.225,-0.236 0.264,-0.197C0.303,-0.158 0.351,-0.138 0.407,-0.138Z" style="fill:rgb(255,238,238);fill-rule:nonzero;"/>
            </g>
            <g transform="matrix(31.9308,0,0,31.9308,104.645,177.434)">
                <path d="M0.382,-0.564L0.382,0L0.226,0L0.226,-0.564L0.028,-0.564L0.028,-0.699L0.58,-0.699L0.58,-0.564L0.382,-0.564Z" style="fill:rgb(255,238,238);fill-rule:nonzero;"/>
            </g>
            <g transform="matrix(31.9308,0,0,31.9308,124.059,177.434)">
                <rect x="0.086" y="-0.699" width="0.156" height="0.699" style="fill:rgb(255,238,238);fill-rule:nonzero;"/>
            </g>
            <g transform="matrix(31.9308,0,0,31.9308,134.532,177.434)">
                <path d="M0.344,-0.254L0.522,-0.699L0.691,-0.699L0.41,0L0.278,0L-0.003,-0.699L0.166,-0.699L0.344,-0.254Z" style="fill:rgb(255,238,238);fill-rule:nonzero;"/>
            </g>
            <g transform="matrix(31.9308,0,0,31.9308,156.5,177.434)">
                <path d="M0.59,-0.699L0.59,-0.56L0.242,-0.56L0.242,-0.416L0.555,-0.416L0.555,-0.283L0.242,-0.283L0.242,-0.138L0.601,-0.138L0.601,0L0.086,0L0.086,-0.699L0.59,-0.699Z" style="fill:rgb(255,238,238);fill-rule:nonzero;"/>
            </g>
        </g>
    </g>
</svg>
